wilib/img/svg/podium.svg

<svg xmlns="http://www.w3.org/2000/svg" xmlns:xlink="http://www.w3.org/1999/xlink" preserveAspectRatio="none" width="459" height="155" viewBox="0 0 459 155"><defs><path fill="#DADADA" d="M379 137.1l-6 .9-349 8-24 9 409-3 50-17q-33.1-1.85-62.85.4-9.3.7-17.15 1.7z" id="a"/><path fill="#FFB600" d="M342 146l9-82h-97l26.55-62.05L70.65.55 118 68H11l13 78h318z" id="b"/><path fill="#956C00" d="M381 71l-30-7-9 82 31-8 8-67z" id="c"/><path fill="#956C00" d="M254 64h28l26.05-55.95-27.8-6.7L254 64z" id="d"/><path fill="#E4A400" d="M342 146l7-67q-146.25 32.5-253.75 34-33.6.45-59.3-2.2-12.8-1.35-18.95-2.8l7 38h318z" id="e"/><path fill="#FF6A00" d="M219 45q0-13.7-9.65-23.35Q199.65 12 186 12q-13.7 0-23.35 9.65Q153 31.3 153 45q0 13.65 9.65 23.35Q172.3 78 186 78q13.65 0 23.35-9.65Q219 58.65 219 45z" id="f"/><path fill="#FFF" d="M203.45 45.4l.55-2.55h-9.55l-.55 2.55h9.55m.55-5.65q1.75-1.4 2.3-3.85l.15-1.35v-.05q0-1.85-1.25-2.9-1.25-1.05-3.45-1.05-2.65 0-4.4 1.45-1.85 1.45-2.35 3.9l-.1.65v.7q0 1.8 1.25 2.85 1.3 1.05 3.4 1.05 2.6 0 4.45-1.4m-.7-4.5l-.1.45q-.3 1.5-1.15 2.35-.8.85-2 .85-.95 0-1.5-.55-.55-.65-.55-1.5l.1-.85q.4-1.6 1.2-2.35.85-.9 2-.9.95 0 1.45.6.55.55.55 1.5v.4z" id="g"/><path fill="#FFF" d="M172.8 39.25q6.35 0 9.3-2.95l-3.9 23.2h-10.7l-1.3 7.8h30.55l1.3-7.8h-10.9l5.7-33.95h-6.9q-4.05 6.15-13.8 6.15l-1.3 7.55h1.95z" id="h"/><path fill="#795900" d="M71.45 107.85l-.55 2.55h9.55l.55-2.55h-9.55m7.3-12.3q-2.65 0-4.4 1.45-1.85 1.45-2.35 3.9l-.1.65v.7q0 1.8 1.25 2.85 1.3 1.05 3.4 1.05 2.6 0 4.45-1.4 1.75-1.4 2.3-3.85l.15-1.35v-.05q0-1.85-1.25-2.9-1.25-1.05-3.45-1.05m-.45 2.2q.95 0 1.45.6.55.55.55 1.5v.4l-.1.45q-.3 1.5-1.15 2.35-.8.85-2 .85-.95 0-1.5-.55-.55-.65-.55-1.5l.1-.85q.4-1.6 1.2-2.35.85-.9 2-.9z" id="i"/><path fill="#795900" d="M57.35 95.7q1.4 1.25 1.4 3.25 0 2.55-2.8 5.4-2.65 2.65-17.75 11.9l-1 7.75h26.3l1-6.75H46.55q7.75-3.9 12.35-6.55 4.2-2.55 6.2-5.25 2.05-2.8 2.05-6.55 0-4.85-3.65-8.05-3.55-3.2-9.15-3.2-5.05 0-8.85 3.1-3.7 3.1-5.15 8.5l7.3 1.75q1.5-6.5 6.35-6.5 2 0 3.35 1.2z" id="j"/><path fill="#795900" d="M318 103.85h-9.55l-.55 2.55h9.55l.55-2.55m-9-6.95l-.1.65v.7q0 1.8 1.25 2.85 1.3 1.05 3.4 1.05 2.6 0 4.45-1.4 1.75-1.4 2.3-3.85l.15-1.35v-.05q0-1.85-1.25-2.9-1.25-1.05-3.45-1.05-2.65 0-4.4 1.45-1.85 1.45-2.35 3.9m3.1.1q.4-1.6 1.2-2.35.85-.9 2-.9.95 0 1.45.6.55.55.55 1.5v.4l-.1.45q-.3 1.5-1.15 2.35-.8.85-2 .85-.95 0-1.5-.55-.55-.65-.55-1.5l.1-.85z" id="k"/><path fill="#795900" d="M294.1 95.05q1.4 1.1 1.4 3.05 0 4.5-6.4 4.5h-3.8l-.8 6.05h2.6q2.55 0 3.75.3 1.3.4 2.25 1.55.95 1.25.95 2.9 0 2.15-1.55 3.6-1.55 1.4-4.25 1.4-5.2 0-6.8-5.65l-6.95 1.3q.9 4.75 4.7 7.75 3.8 3.05 9.55 3.05 6.3 0 10-3.25 3.65-3.2 3.65-7.7 0-2.5-1.45-4.8-1.5-2.25-4.3-3.3 3.35-.6 5.15-2.95 1.9-2.45 1.9-5.45 0-4.45-3.6-7.1-3.45-2.65-9.2-2.65-9.55 0-13.3 8.55l7 1.95q1.85-4.25 5.95-4.25 2.2 0 3.55 1.15z" id="l"/></defs><use xlink:href="#a" transform="translate(0 -.55)"/><use xlink:href="#b" transform="translate(0 -.55)"/><use xlink:href="#c" transform="translate(0 -.55)"/><use xlink:href="#d" transform="translate(0 -.55)"/><use xlink:href="#e" transform="translate(0 -.55)"/><use xlink:href="#f" transform="translate(0 -.55)"/><use xlink:href="#g" transform="translate(0 -.55)"/><use xlink:href="#h" transform="translate(0 -.55)"/><use xlink:href="#i" transform="translate(0 -.55)"/><use xlink:href="#j" transform="translate(0 -.55)"/><use xlink:href="#k" transform="translate(0 -.55)"/><use xlink:href="#l" transform="translate(0 -.55)"/></svg>

<svg xmlns="http://www.w3.org/2000/svg" version="1.1" xmlns:xlink="http://www.w3.org/1999/xlink" preserveAspectRatio="none" x="0px" y="0px" width="459px" height="155px" viewBox="0 0 459 155">
<defs>
<g id="mc_podio_0_Layer0_0_MEMBER_0_FILL">
<path fill="#DADADA" stroke="none" d="
M 379 137.1
L 373 138 24 146 0 155 409 152 459 135
Q 425.9 133.15 396.15 135.4 386.85 136.1 379 137.1 Z"/>
</g>

<g id="mc_podio_0_Layer0_0_MEMBER_1_FILL">
<path fill="#FFB600" stroke="none" d="
M 342 146
L 351 64 254 64 280.55 1.95 70.65 0.55 118 68 11 68 24 146 342 146 Z"/>
</g>

<g id="mc_podio_0_Layer0_0_MEMBER_2_FILL">
<path fill="#956C00" stroke="none" d="
M 381 71
L 351 64 342 146 373 138 381 71 Z"/>
</g>

<g id="mc_podio_0_Layer0_0_MEMBER_3_FILL">
<path fill="#956C00" stroke="none" d="
M 254 64
L 282 64 308.05 8.05 280.25 1.35 254 64 Z"/>
</g>

<g id="mc_podio_0_Layer0_0_MEMBER_4_FILL">
<path fill="#E4A400" stroke="none" d="
M 342 146
L 349 79
Q 202.75 111.5 95.25 113 61.65 113.45 35.95 110.8 23.15 109.45 17 108
L 24 146 342 146 Z"/>
</g>

<g id="mc_podio_0_Layer0_0_MEMBER_5_FILL">
<path fill="#FF6A00" stroke="none" d="
M 219 45
Q 219 31.3 209.35 21.65 199.65 12 186 12 172.3 12 162.65 21.65 153 31.3 153 45 153 58.65 162.65 68.35 172.3 78 186 78 199.65 78 209.35 68.35 219 58.65 219 45 Z"/>
</g>

<g id="mc_podio_0_Layer0_0_MEMBER_6_FILL">
<path fill="#FFFFFF" stroke="none" d="
M 203.45 45.4
L 204 42.85 194.45 42.85 193.9 45.4 203.45 45.4
M 204 39.75
Q 205.75 38.35 206.3 35.9
L 206.45 34.55 206.45 34.5
Q 206.45 32.65 205.2 31.6 203.95 30.55 201.75 30.55 199.1 30.55 197.35 32 195.5 33.45 195 35.9
L 194.9 36.55 194.9 37.25
Q 194.9 39.05 196.15 40.1 197.45 41.15 199.55 41.15 202.15 41.15 204 39.75
M 203.3 35.25
L 203.2 35.7
Q 202.9 37.2 202.05 38.05 201.25 38.9 200.05 38.9 199.1 38.9 198.55 38.35 198 37.7 198 36.85
L 198.1 36
Q 198.5 34.4 199.3 33.65 200.15 32.75 201.3 32.75 202.25 32.75 202.75 33.35 203.3 33.9 203.3 34.85
L 203.3 35.25 Z"/>
</g>

<g id="mc_podio_0_Layer0_0_MEMBER_7_FILL">
<path fill="#FFFFFF" stroke="none" d="
M 172.8 39.25
Q 179.15 39.25 182.1 36.3
L 178.2 59.5 167.5 59.5 166.2 67.3 196.75 67.3 198.05 59.5 187.15 59.5 192.85 25.55 185.95 25.55
Q 181.9 31.7 172.15 31.7
L 170.85 39.25 172.8 39.25 Z"/>
</g>

<g id="mc_podio_0_Layer0_0_MEMBER_8_FILL">
<path fill="#795900" stroke="none" d="
M 71.45 107.85
L 70.9 110.4 80.45 110.4 81 107.85 71.45 107.85
M 78.75 95.55
Q 76.1 95.55 74.35 97 72.5 98.45 72 100.9
L 71.9 101.55 71.9 102.25
Q 71.9 104.05 73.15 105.1 74.45 106.15 76.55 106.15 79.15 106.15 81 104.75 82.75 103.35 83.3 100.9
L 83.45 99.55 83.45 99.5
Q 83.45 97.65 82.2 96.6 80.95 95.55 78.75 95.55
M 78.3 97.75
Q 79.25 97.75 79.75 98.35 80.3 98.9 80.3 99.85
L 80.3 100.25 80.2 100.7
Q 79.9 102.2 79.05 103.05 78.25 103.9 77.05 103.9 76.1 103.9 75.55 103.35 75 102.7 75 101.85
L 75.1 101
Q 75.5 99.4 76.3 98.65 77.15 97.75 78.3 97.75 Z"/>
</g>

<g id="mc_podio_0_Layer0_0_MEMBER_9_FILL">
<path fill="#795900" stroke="none" d="
M 57.35 95.7
Q 58.75 96.95 58.75 98.95 58.75 101.5 55.95 104.35 53.3 107 38.2 116.25
L 37.2 124 63.5 124 64.5 117.25 46.55 117.25
Q 54.3 113.35 58.9 110.7 63.1 108.15 65.1 105.45 67.15 102.65 67.15 98.9 67.15 94.05 63.5 90.85 59.95 87.65 54.35 87.65 49.3 87.65 45.5 90.75 41.8 93.85 40.35 99.25
L 47.65 101
Q 49.15 94.5 54 94.5 56 94.5 57.35 95.7 Z"/>
</g>

<g id="mc_podio_0_Layer0_0_MEMBER_10_FILL">
<path fill="#795900" stroke="none" d="
M 318 103.85
L 308.45 103.85 307.9 106.4 317.45 106.4 318 103.85
M 309 96.9
L 308.9 97.55 308.9 98.25
Q 308.9 100.05 310.15 101.1 311.45 102.15 313.55 102.15 316.15 102.15 318 100.75 319.75 99.35 320.3 96.9
L 320.45 95.55 320.45 95.5
Q 320.45 93.65 319.2 92.6 317.95 91.55 315.75 91.55 313.1 91.55 311.35 93 309.5 94.45 309 96.9
M 312.1 97
Q 312.5 95.4 313.3 94.65 314.15 93.75 315.3 93.75 316.25 93.75 316.75 94.35 317.3 94.9 317.3 95.85
L 317.3 96.25 317.2 96.7
Q 316.9 98.2 316.05 99.05 315.25 99.9 314.05 99.9 313.1 99.9 312.55 99.35 312 98.7 312 97.85
L 312.1 97 Z"/>
</g>

<g id="mc_podio_0_Layer0_0_MEMBER_11_FILL">
<path fill="#795900" stroke="none" d="
M 294.1 95.05
Q 295.5 96.15 295.5 98.1 295.5 102.6 289.1 102.6
L 285.3 102.6 284.5 108.65 287.1 108.65
Q 289.65 108.65 290.85 108.95 292.15 109.35 293.1 110.5 294.05 111.75 294.05 113.4 294.05 115.55 292.5 117 290.95 118.4 288.25 118.4 283.05 118.4 281.45 112.75
L 274.5 114.05
Q 275.4 118.8 279.2 121.8 283 124.85 288.75 124.85 295.05 124.85 298.75 121.6 302.4 118.4 302.4 113.9 302.4 111.4 300.95 109.1 299.45 106.85 296.65 105.8 300 105.2 301.8 102.85 303.7 100.4 303.7 97.4 303.7 92.95 300.1 90.3 296.65 87.65 290.9 87.65 281.35 87.65 277.6 96.2
L 284.6 98.15
Q 286.45 93.9 290.55 93.9 292.75 93.9 294.1 95.05 Z"/>
</g>
</defs>

<g transform="matrix( 1, 0, 0, 1, 0,0) ">
<g id="mc_podio" transform="matrix( 1, 0, 0, 1, 0,-0.55) ">
<g transform="matrix( 1, 0, 0, 1, 0,0) ">
<use xlink:href="#mc_podio_0_Layer0_0_MEMBER_0_FILL"/>
</g>

<g transform="matrix( 1, 0, 0, 1, 0,0) ">
<use xlink:href="#mc_podio_0_Layer0_0_MEMBER_1_FILL"/>
</g>

<g transform="matrix( 1, 0, 0, 1, 0,0) ">
<use xlink:href="#mc_podio_0_Layer0_0_MEMBER_2_FILL"/>
</g>

<g transform="matrix( 1, 0, 0, 1, 0,0) ">
<use xlink:href="#mc_podio_0_Layer0_0_MEMBER_3_FILL"/>
</g>

<g transform="matrix( 1, 0, 0, 1, 0,0) ">
<use xlink:href="#mc_podio_0_Layer0_0_MEMBER_4_FILL"/>
</g>

<g transform="matrix( 1, 0, 0, 1, 0,0) ">
<use xlink:href="#mc_podio_0_Layer0_0_MEMBER_5_FILL"/>
</g>

<g transform="matrix( 1, 0, 0, 1, 0,0) ">
<use xlink:href="#mc_podio_0_Layer0_0_MEMBER_6_FILL"/>
</g>

<g transform="matrix( 1, 0, 0, 1, 0,0) ">
<use xlink:href="#mc_podio_0_Layer0_0_MEMBER_7_FILL"/>
</g>

<g transform="matrix( 1, 0, 0, 1, 0,0) ">
<use xlink:href="#mc_podio_0_Layer0_0_MEMBER_8_FILL"/>
</g>

<g transform="matrix( 1, 0, 0, 1, 0,0) ">
<use xlink:href="#mc_podio_0_Layer0_0_MEMBER_9_FILL"/>
</g>

<g transform="matrix( 1, 0, 0, 1, 0,0) ">
<use xlink:href="#mc_podio_0_Layer0_0_MEMBER_10_FILL"/>
</g>

<g transform="matrix( 1, 0, 0, 1, 0,0) ">
<use xlink:href="#mc_podio_0_Layer0_0_MEMBER_11_FILL"/>
</g>
</g>
</g>
</svg>
